X: 1
T: Hughie's Cap
M: 4/4
L: 1/8
R: reel
K: Ddor
c2 AF ABcA|d2 BG Bcdf|ec (3ccc aAgA|fagf dcAB|c2 AF ABcA|
d2 BG Bcdf|ec (3ccc aAgA|1fagf dcAB:|2fagf d4||
d3 e fedc|AF (3FFF DGGB|A2 de fedf|ec (3ccc aAgA|
d3 e fedc|AGFE FDEC|A,DDE FGAd|1cAGE F4:|2cAGE FGAB||
